X:1
T:Psalm 6
T:Psalm 6
T:Tim Risher
T:© 2008
T:© 2008
T:© 2008
C:Tim Risher
Z:© 2008
%%score [ 1 2 3 4 ]
L:1/8
Q:1/4=100
M:4/4
K:Dmin
V:1 treble nm="Soprano" snm="S"
V:2 treble-8 nm="Alto" snm="A"
V:3 treble-8 nm="Tenor" snm="T"
V:4 bass nm="Bass" snm="B"
V:1
 A4 A2 A2 | !fermata!B4 z2 A2 | G2 F2 G3 A | F4 F4- | !fermata!F8 | G2 GA B3 A/G/ | %6
w: Tous les re-|gretz quon-|ques fu- rent au|mon- de,|_|Ve- nez _ a _ _|
 A2 A/G/F/A/ G2 z F | E2 D2 E2 E2 | F2 !fermata!F2 A2 AA | G B2 A/G/ ^FG- G/F/F/E/ | !fermata!G8 | %11
w: moy _ _ _ _ _ Quel-|que part que je|soi- e pren- nez mon|cueur, _ _ _ mon _ _ _ _ _|cueur|
 A>B AB- BA/G/ FG | F2 z F ED E2 | F2 D2 G4 | G3 F/E/ D2 z C | B,2 C2 D2 E2- | ED D3 ^C/=B,/ C2 | %17
w: En _ _ sa _ _ _ dol- *|leur, En sa dol- leur|par fonde et|le fen- * des Que|ma- da- me le|_ _ voy- * * *|
 D8- | !fermata!D8 | A4 A2 A2 | G2 B3 A G2 | ^F2 G3 F/E/ F2 | !fermata!G8 |] %23
w: e,|_|Que ma- da-|me le _ _|voy- * * * *|e.|
V:2
 f4 f2 f2 | !fermata!f4 z2 f2 | d2 d2 d2 _e2 | d2 d>c BA d>c | BA !fermata!A6 | d2 df- fe/d/ e2 | %6
w: Tous les re-|gretz quon-|ques fu- rent au|mon- de, _ _ _ au _|mon- * de|Ve- nez _ _ _ _ a|
 f3 e/d/ e2 z d | ec fd c3 B/A/ | A2 !fermata!d2 f2 ff | dg- g/f/_e dc d2 | B_e d2 !fermata!e4 | %11
w: moy _ _ _ Quel-|que part que je soi- * *|* e pren- nez mon|cueur, _ _ _ _ pren- * nez|mon _ _ cueur|
 f2 f f2 _e d2 | d2 z A cd c2 | d2 f2 e2 ed/c/ | c4 F2 z F | D2 A2 F2 c2 | A2 B2 A4 | %17
w: En _ sa _ dol-|leur, En sa dol- leur|par fonde et le _ _|fen- des Que|ma- da- me le|voy- * e,|
 F>G FG- G/B/A GB- | BA/G/ !fermata!A6 | f4 f2 f2 | d2 g3 f _e2 | d2 c2 d4 | !fermata!d8 |] %23
w: le _ _ voy- * * * * *|* * * e,|Que ma- da-|me le _ _|voy- * *|e.|
V:3
 c4 c2 c2 | !fermata!d4 z2 c2 | B2 A2 B2 c2 | A2 BA d>c BA | !fermata!d8 | B2 Bc d2 B2 | %6
w: Tous les re-|gretz quon-|ques fu- rent au|mon- de _ _ _ _ _|_|Ve- nez _ a _|
 c4 c2 z A | A2 B2 G2 G2 | F2 !fermata!B2 c2 cc | Bd- dc/B/ AG A2 | G c2 =B !fermata!c4 | %11
w: moy _ Quel-|que part que je|soi- e pren- nez mon|cueur, _ _ _ _ pren- * nez|mon _ _ cueur|
 c>d cd- dc/B/ A2 | B2 z F AB G2 | A2 B2 c3 B/A/ | G2 A2 B2 z A | G2 E2 D2 G2 | F2 G2 E4 | D8- | %18
w: En _ _ sa _ _ _ dol-|leur, En sa dol- leur|par fonde et _ _|le fen- des Que|ma- da- me le|voy- * *|e,|
 !fermata!D8 | c4 c2 c2 | B3 A/G/ B2 B2 | A2 G2 A4 | !fermata!G8 |] %23
w: _|Que ma- da-|me _ _ le _|voy- * *|e.|
V:4
 F,4 F,2 F,2 | !fermata!B,,4 z2 F,2 | G,2 D,2 G,2 C,2 | D,4 D,4- | !fermata!D,8 | %5
w: Tous les re-|gretz quon-|ques fu- rent au|mon- de|_|
 G,2 B,A, G,2 G,2 | F,4 C,2 z D, | C,2 B,,2 C,2 C,2 | D,2 !fermata!B,,2 F,2 F,F, | %9
w: Ve- nez _ _ a|moy _ Quel-|que part que je|soi- e pren- nez mon|
 G,>F, G,C, D,_E, D,2 | _E,C, G,2 !fermata!C,4 | F,>B,, F,B,,- B,,C, D,2 | B,,2 z D, C,B,, C,E, | %13
w: cueur, _ _ _ pren- * nez|mon _ _ cueur|En _ _ sa _ _ dol-|leur, En sa dol- leur par|
 D,2 D,2 C,4 | C,4 B,,2 z F,, | G,,2 A,,2 B,,2 C,2 | D,2 G,,2 A,,4 | %17
w: fonde et le|fen- des Que|ma- da- me le|voy- * e,|
 B,,3 G,,- G,,F,, G,,F,,/_E,,/ | !fermata!D,,8 | F,4 F,2 F,2 | G,3 F, G,2 C,2 | D,2 _E,2 D,4 | %22
w: le voy- * * * * *|e,|Que ma- da-|me _ le _|voy- * *|
 !fermata!G,,8 |] %23
w: e.|

